X:1
T: The Bonny Broom
C:
R:Strathspey
Q:128
K:Em
M:4/4
L:1/16
|:Be3 B3A G3F E4|Ad3 A3G F3E D4|E3F G3A BB3 e3f|g3e gfe^d e6B2|
Be3 B3A G3F E4|Ad3 A3G F3E D4|E3F G3A BB3 e3f|g3e gfe^d e6B2|
Be3 g3f e3f g3b|a3g f3e d3e gfed|Be3 e3f g3f g3b|a3f bagf e6B2|
Be3 g3f e3f g3b|a3g f3e d3e gfed|Be3 e3f g3f g3b|af3 b3^d e4-e4:|
